X:19125
T:Xota
T:Jota
R:Xota
C:Tradicional
S:Msica Tradicional Asturiana, (C) Tello & Tito. Asturies, 2001.
S:http://pagina.de/MusTradAst <telloytito@asturies.org>
A:Asturies
Z:Danzas y Bailes I
M:3/8
L:1/8
Q:3/4=70
K:F
|FGA|: FGE|FG/F/E-|E3|GBA|GBA|GA/G/F-|[1 F3|FGA :|[2 F3|
|FGA|FGE|F2 E-|E3|GBA|GBA|G G2-|GA/G/F/E/|F3-|
|FBA|GG/F/G-|GAG|FF/E/F-|FBA|GG/F/E/F/|GG/F/F/E/|F3-|F z2||
